X:1
T:Title
%%score { ( 1 3 5 ) | ( 2 4 ) }
L:1/8
M:4/4
K:Db
V:1 treble nm="Grand Piano"
V:3 treble 
V:5 treble 
V:2 treble 
V:4 treble 
V:1
 z4 z[Q:1/4=100] F F>G | A6 z2 | z2 D2 D>d c>d | e6 z2 | [DF]6 z2 | A6 z2 | z2 D2 D>d c>d | e6 z2 | %8
[M:11/16] d/-d/-d/-d/-d/-d/-d/-d-<d |[M:3/8] (5:4:6A-A/8 z3/8 z3/4 B3/4F3/4 |[M:4/4] G6 z2 | %11
 A6 z2 | B6 z2 | [Ge]6 z2 | f6 z2 |[M:9/8] e6- e z z |[M:4/4] A>A d>d c>c f>e | %17
[M:11/16] [Fd]-<[Fd-]d/-d/-d/-d-<d |] %18
V:2
 z4 z D D>E | F6[K:bass] z2 | [D,D]2 D,2 D,>[K:treble]F E>F | G6[K:bass] z2 | %4
 D,2 D,2 D,>[K:treble]D D>E | F6[K:bass] z2 | [D,D]2 D,2 D,>[K:treble]F E>F | G6 G2[K:bass] | %8
[M:11/16] [D,A,]-<[D,A,][D,B,]-<[D,B,][D,A,]3/2 |[M:3/8][K:treble] z .F z | %10
[M:4/4] E6[K:bass][K:treble] E2 | F6[K:bass][K:treble] z2 | G6[K:bass] z2 | [A,C]>A, A,>A, A,2 z2 | %14
 A6[K:treble] z2 |[M:9/8][K:bass] G6- G[K:treble] z z |[M:4/4] z2 A6 | %17
[M:11/16][K:bass] z/ z A,<B, z/ [D,A,]3/2 |] %18
V:3
 x8 | z2 D2 D>[Fd] [DF]>[GB] | [FA]6 z2 | z2 C2 C>[Ec] [A,CA]>[A,EG] | A,2 A,2 A,>F F>G | %5
 z2 D2 D>[Fd] [DF]>[GB] | [FA]6 z2 | z2 C2 C>A B>c |[M:11/16] F-<FG-<GF3/2 |[M:3/8] z .A z | %10
[M:4/4] z z/ C/ C>C C>G (3GcB | z z/ D/ D>D D>A (3Adc | z z/ D/ D>D D>d [=Gc]>[Gd] | %13
 z z/ C/ C>C C>A A>A | z z/ D/ D>D D>e d>c |[M:9/8] z z/ B,/B,- B,/B,/ B,2- B,d>B |[M:4/4] x8 | %17
[M:11/16] z/ z/ z G-<G z/ z |] %18
V:4
 x8 | z2[K:bass] D,2 D,>[D,A,] [D,A,]>[D,D] | x11/2[K:treble] x5/2 | z2 A,2[K:bass] A,>A, A,,>A,, | %4
 x11/2[K:treble] x5/2 | z2[K:bass] D,2 D,>[D,A,] [D,A,]>[D,D] | x11/2[K:treble] x5/2 | %7
 z2 A,2 A,>[A,C] [A,C]>[K:bass]A, |[M:11/16] x11/2 | %9
[M:3/8][K:treble] (5:4:6F-F/8 z3/8 z3/4 G3/4=D3/4 | %10
[M:4/4] z z/[K:bass] A,,/ A,,>A,, A,,>E[K:treble] (3:2:2z2 G | %11
 z z/[K:bass] D,/ D,>D, D,>[K:treble]F F2 | z z/[K:bass] G,/ G,>G, G,>[G,B,G] [E,B,]>[E,B,] | x8 | %14
 z z/ D,/ D,>D, D,>[K:treble]G F>E | %15
[M:9/8][K:bass] z z/ G,/G,- G,/G,/ G,2- G,[K:treble][G,B,G]>[G,DG] | %16
[M:4/4] [A,DF]>[A,DF] [A,F]>[A,F] [A,E]>[A,E] [A,D]>[A,CG] | %17
[M:11/16][K:bass] D,/-D,/-D,/-D,/-D,-<D, z/ z |] %18
V:5
 x8 | x8 | x8 | x8 | x8 | x8 | x8 | x8 |[M:11/16] x11/2 |[M:3/8] x3 |[M:4/4] x8 | x8 | x8 | x8 | %14
 x8 |[M:9/8] x9 |[M:4/4] x8 |[M:11/16] D3/2 z/ z/ z B,<F |] %18

